!!!COM: Beethoven, Ludwig van
!!!CDT: 1770///-1827///
!!!OTL: Piano Sonata no. 27 in E minor
!!!ODT: 1814///
!!!ODE: au Comte Lichnowsky
!!!OPS: 90
!!!OMV: 1
!!!OMD: Allegro
!!!OMD@@GER: Mit Lebhaftigkeit und durchaus mit Empfindung und Ausdruck
!!!OMD@ENG: With liveliness and with feeling and expression throughout
**kern	**kern	**dynam
*staff2	*staff1	*staff1/2
*Ipiano	*Ipiano	*Ipiano
*clefF4	*clefG2	*clefG2
*k[f#]	*k[f#]	*k[f#]
*e:	*e:	*e:
*M3/4	*M3/4	*M3/4
*MM144	*MM144	*MM144
!!LO:TX:i:a:t=con vivacità ed espressione
8EE 8E	8G 8B 8e 8g	f
8r	8r	.
=1	=1	=1
*	*^	*
2EE 2E	(4.g	2G 2B 2e	.
.	8f#	.	.
8EE 8E	8G 8e)	4ryy	.
8r	8r	.	.
*	*v	*v	*
=2	=2	=2
8DD 8D	8A 8f# 8a	.
8r	8r	.
4r	4r	.
4d	4f# 4a	p
=3	=3	=3
(<4.c 4.d	4.f# (>4.a	.
8B 8d)	8g)	.
(4A' 4c'	(4f#' 4a'	.
=4	=4	=4
4G' 4B')	4g') 4b'	.
4r	4r	.
8GG\ 8G\	8B 8d 8g 8b	f
8r	8r	.
=5	=5	=5
*	*^	*
2GG\ 2G\	(4.b	2B 2d 2g	.
.	8a	.	.
8GGG 8GG	8B 8g)	4ryy	.
8r	8r	.	.
*	*v	*v	*
=6	=6	=6
8FFF# 8FF#	8c# 8a# 8cc#	.
8r	8r	.
4r	4r	.
*clefG2	*	*
4f#	4a#/ 4cc#/	p
!!LO:LB:g=z
=7	=7	=7
(4.e 4.f#	4.a# (4.cc#	.
8d 8f#)	8b)	.
(4c#' 4e'	4a#' (4cc#'	.
=8	=8	=8
4B' 4d')	4b' 4dd')	.
!	!LO:TX:i:b:t=dolce	!
4r	4r	.
4r	[4dd	.
=9	=9	=9
*^	*	*
*	*^	*	*
2.g	2d	2.B	4dd]	.
.	.	.	(4gg	.
.	([4e/	.	4ee	.
*	*v	*v	*	*
=10	=10	=10	=10
2g	2A 2e])	4dd	.
.	.	4ccn)	.
[4f#	(4e-	[4cc	.
=11	=11	=11	=11
2f#]	2d)	(4cc]	.
.	.	4aa)	.
(4f#	4ryy	[4cc	.
*v	*v	*	*
=12	=12	=12
2g	(4cc]	.
.	4b)	.
*clefF4	*	*
4G	[4b	.
=13	=13	=13
2E	(4b]	>
.	4g)	.
4e	[4g	.
=14	=14	=14
2c	(4g]	.
.	4e)	.
[>4C)	[4e	.
!!LO:LB:g=z
=15	=15	=15
2.CC 2.C]	4e]	pp
*	*clefF4	*
!	!LO:TX:a:B:t=Rit.	!
.	(4G	.
.	4E)	.
=16	=16	=16
2BBB; 2BB;	2D#; 2B;	.
*	*clefG2	*
!!LO:TX:a:B:t=a Tempo
4r	[4ee [4eee	.
=17	=17	=17
*^	*	*
*ped	*	*	*
[2.E 2.B	2.GG	4.ee] (4.eee]	.
.	.	8dd# 8ddd#	.
.	.	4ee 4eee)	.
*Xped	*	*	*
=18	=18	=18	=18
2.E]	2AA	2c 2e 2f#	<
.	4AA#	4c# 4e 4f#	[[
*v	*v	*	*
=19	=19	=19
*	*^	*
2.BB	(4.f#	2.A 2.d#	>
.	8gL	.	.
.	8a	.	.
.	8gJ	.	]]
*	*v	*v	*
=20	=20	=20
2C (2G	4f#	>
.	4e)	]
8BBL	[4ee [4eee	<
8AAJ)	.	.
=21	=21	=21
*^	*	*
2.E 2.B	2GG	(4.ee] 4.eee]	.
.	.	8dd# 8ddd#	.
.	4GG#	4ee 4eee)	[
*v	*v	*	*
=22	=22	=22
2AA	2c 2e 2f#	fp
4AA#	4c# 4e 4f#	.
!!LO:LB:g=z
=23	=23	=23
*	*^	*
!!LO:TX:a:B:t=Rit.
2.BBB 2.BB	(4.f#	2.A 2.d#	.
.	8aL	.	.
.	8g	.	.
.	8f#J	.	.
*	*v	*v	*
=24	=24	=24
4EE 4E	4G 4e)	.
4r;	4r;	.
!!LO:TX:a:B:t=a Tempo
4BBB 4BB	4B 4b	pp
=25	=25	=25
2BBB 2BB	2B 2b	.
4EE 4E	4e\ 4ee\	.
=26	=26	=26
2EE 2E	2e\ 2ee\	.
4BB 4B	4b 4bb	.
=27	=27	=27
2BB 2B	2b 2bb	.
4E 4e	4ee 4eee	.
=28	=28	=28
2E 2e	2ee 2eee	.
*	*8va	*
!	!	!LO:DY:rj
8G 8B 8d 8fn	8ffn 8bb 8ddd 8fffn	f
8r	8r	.
=29	=29	=29
!	!	!LO:DY:rj
4.G 4.B 4.d 4.fn	4.ffn 4.bb 4.ddd 4.fffn	sf
8r	16eeeLL	.
.	16dddJJ	.
4r	16cccnLL<	.
.	16bb	.
.	16aa	.
.	16ggJJ	.
*	*X8va	*
!!LO:LB:g=z
=30	=30	=30
2.r	16ffnLL	.
.	16ee	.
.	16dd	.
.	16ccJJ	.
.	(24bLL	.
.	24a	.
.	24g	.
.	24fn	.
.	24e	.
.	24dJJ)	.
.	(>20c<LL	.
.	20B<	.
.	20A<	.
.	20G<	.
.	20F#X<JJ)	.
=31	=31	=31
4r	8G'	.
.	8r	.
4r	4r	.
8BBB 8BB	8G 8d 8fn	.
8r	8r	.
=32	=32	=32
8CC 8C	8G 8c 8e	.
8r	8r	.
4r	4r	.
8E 8G# 8B 8d	8dd 8gg# 8bb 8ddd	.
8r	8r	.
=33	=33	=33
4.E 4.G# 4.B 4.d	4.dd 4.gg# 4.bb 4.ddd	sf
8r	16cccLL	.
.	16bbJJ	.
4r	16aaLL	.
.	16gg#	.
.	16ff#X	.
.	16eeJJ	.
!!LO:LB:g=z
=34	=34	=34
2.r	16ddLL>	.
.	16cc	.
.	16b	.
.	16aJJ	.
.	(24g#LL	.
.	24f#	.
.	24e	.
.	24d	.
.	24c	.
.	24BJJ)	.
*	*clefF4	*
.	(20ALL	.
.	20G#	.
.	20F#	.
.	20E	.
.	20D#JJ)	.
=35	=35	=35
4r	4E	.
4r	4r	.
8GGG# 8GG#	8E 8B 8dn	.
8r	8r	.
=36	=36	=36
8AAA 8AA	8E 8A 8c	.
8r	8r	.
4r	4r	.
*	*clefG2	*
4B-	4bb-	p
=37	=37	=37
[2.B-	(4.bb-	.
.	16aaLL	.
.	16ggJJ	.
.	16ffnLL	.
.	16ee-	.
.	16dd	.
.	16ccJJ	.
=38	=38	=38
4B-]	16b-LL	.
.	16a	.
.	16g	.
.	16f#JJ	.
4r	12e-L	.
.	12d	.
.	12cJ	.
4r	4B-)	.
*clefG2	*	*
!!LO:LB:g=z
=39	=39	=39
*ped	*	*
4r	[2.B-	.
4r	.	.
4e	.	.
=40	=40	=40
2e	2B-]	.
4A# 4e	4g	.
=41	=41	=41
2A# 2e	2g	.
4A# 4e	4g 4cc#	.
=42	=42	=42
2A# 2e	2g 2cc#	.
4A# 4c# 4e 4g	4cc# 4ee 4gg	.
=43	=43	=43
*^	*^	*
2g	[2.A# [2.c# [2.e	2gg	[2.cc# [2.ee	<
*Xped	*	*	*	*
4f#	.	4ff#	.	.
=44	=44	=44	=44	=44
2e#	2A#] 2c#] 2enX]	2ee#	2cc#] 2ee]	.
4f#	4A# 4c# 4e	4ff#	4cc# 4een	.
*v	*v	*	*	*
*	*v	*v	*
=45	=45	=45
8B 8d 8f#L	2.b 2.dd 2.ff#	f
8B 8d 8f#	.	.
8B 8d 8f#	.	.
8B 8d 8f#	.	.
8B 8d 8f#	.	.
8B 8d 8f#J	.	.
*clefF4	*	*
!!LO:LB:g=z
=46	=46	=46
8D 8F# 8BL	2.b 2.ff# 2.bb	sf
8D 8F# 8B	.	.
8D 8F# 8B	.	.
8D 8F# 8B	.	.
8D 8F# 8B	.	.
8D 8F# 8BJ	.	.
=47	=47	=47
8D# 8F# 8AL	8f# 8b	.
8D# 8F# 8A	8r	.
8E 8G	8cn 8ccn	.
8E 8G	8r	.
8E 8G	4r	.
8E 8GJ	.	.
=48	=48	=48
8E 8G 8BL	8g 8cc	.
8E 8G 8B	8r	.
8F# 8A	8d# 8dd#	.
8F# 8A	8r	.
8F# 8A	4r	.
8F# 8AJ	.	.
=49	=49	=49
8F# 8A 8cnL	8a 8dd#	.
8F# 8A 8c	8r	.
8G 8B	8e\ 8ee\	.
8G 8B	8r	.
8G 8B	4r	.
8G 8BJ	.	.
=50	=50	=50
8G# 8B 8dL	8b 8ee	.
8G# 8B 8d	8r	.
8G# 8B 8c#	8e#\ 8ee#\	.
8G# 8B 8c#	8r	.
8G# 8B 8c#	4r	.
8G# 8B 8c#J	.	.
!!LO:LB:g=z
=51	=51	=51
8c#L	8g# 8b (8eenL	pp
8c#	8g# 8b 8ee#)	.
8c#	8g#' 8b' 8ee#'	.
8c#	8g#' 8b' 8ee#'	.
8c#	8g#' 8b' 8ee#'	.
8c#J	8g#' 8b' 8ee#'J	.
=52	=52	=52
8c#L	8g# 8b 8ee#L	<
8c#	8g# 8b 8ee#	.
8c#	8g# 8b 8ee#	.
8c#	8g# 8b 8ee#	.
8c#	8g# 8b 8ee#	.
8c#J	8g# 8b 8ee#J	.
=53	=53	=53
*	*8va	*
8F# 8A# 8c# 8eL	8ff# 8aa# 8ccc# 8eeen (8fff#L	ff
8F# 8A# 8c# 8e	8gg 8aa# 8ccc# 8eee 8ggg)	.
8F# 8A# 8c# 8e	8gg' 8aa#' 8ccc#' 8eee' 8ggg'	.
8F# 8A# 8c# 8e	8gg' 8aa#' 8ccc#' 8eee' 8ggg'	.
8F# 8A# 8c# 8e	8gg 8aa# 8ccc# 8eee 8ggg	.
8F# 8A# 8c# 8eJ	8gg 8aa# 8ccc# 8eee 8gggJ	.
=54	=54	=54
!!LO:TX:a:B:t=Rit.
8F# 8A# 8c# 8eL	8gg 8aa# 8ccc# 8eee 8gggL	>
8F# 8A# 8c# 8e	8gg 8aa# 8ccc# 8eee 8ggg	.
8F# 8A# 8c# 8e	8gg 8aa# 8ccc# 8eee 8ggg	.
8F# 8A# 8c# 8e	8gg 8aa# 8ccc# 8eee 8ggg	.
8F# 8A# 8c# 8e	8gg 8aa# 8ccc# 8eee 8ggg	.
8F# 8A# 8c# 8eJ	8gg 8aa# 8ccc# 8eee 8gggJ	.
!!LO:LB:g=z
=55	=55	=55
!!LO:TX:a:B:t=a Tempo
!	!	!LO:DY:b=2
16BBLL	4gg 4ggg	p
16d	.	.
16F#	.	.
16dJJ	.	.
16C#LL	[2ff# [2fff#	.
16e	.	.
16F#	.	.
16eJJ	.	.
16DLL	.	.
16f#	.	.
16F#	.	.
16f#JJ	.	.
=56	=56	=56
16BBLL	4ff#] 4fff#]	.
16d	.	.
16F#	.	.
16dJJ	.	.
*	*X8va	*
16C#LL	[2b [2bb	.
16e	.	.
16F#	.	.
16eJJ	.	.
16DLL	.	.
16f#	.	.
16F#	.	.
16f#JJ	.	.
=57	=57	=57
16BBLL	4b] 4bb]	.
16d	.	.
16F#	.	.
16dJJ	.	.
16C#LL	[2f# [2ff#	.
16e	.	.
16F#	.	.
16eJJ	.	.
16DLL	.	.
16f#	.	.
16F#	.	.
16f#JJ	.	.
=58	=58	=58
16BBLL	4f#] 4ff#]	.
16d	.	.
16F#	.	.
16dJJ	.	.
16C#LL	2B [2b	.
16e	.	.
16F#	.	.
16eJJ	.	.
16DLL	.	.
16f#	.	.
16F#	.	.
16f#JJ	.	.
!!LO:LB:g=z
=59	=59	=59
16ELL	(4b/]	.
16d	.	.
16B	.	.
16dJJ	.	.
16E#LL	4g	.
16d	.	.
16B	.	.
16dJJ	.	.
16F#LL	4f#)	.
16d	.	.
16B	.	.
16dJJ	.	.
=60	=60	=60
16F#LL	(2f#	.
16d	.	.
16B	.	.
16dJJ	.	.
16F#LL	.	.
16d	.	.
16B	.	.
16dJJ	.	.
16F#LL	4a#)	.
16e	.	.
16c#	.	.
16eJJ	.	.
=61	=61	=61
16BBLL	8r	.
16d	.	.
16F#	(8gg	.
16dJJ	.	.
16C#LL	4.ggg^<	.
16e	.	.
16F#	.	.
16eJJ	.	.
16DLL	.	.
16f#	.	.
16F#	8fff#)	.
16f#JJ	.	.
=62	=62	=62
16BBLL	8r	.
16d	.	.
16F#	(8fff#	.
16dJJ	.	.
16C#LL	4.ccc#^<	.
16e	.	.
16F#	.	.
16eJJ	.	.
16DLL	.	.
16f#	.	.
16F#	8bb)	.
16f#JJ	.	.
!!LO:LB:g=z
=63	=63	=63
16BBLL	8r	.
16d	.	.
16F#	(8bb	.
16dJJ	.	.
16C#LL	4.gg^<	.
16e	.	.
16F#	.	.
16eJJ	.	.
16DLL	.	.
16f#	.	.
16F#	8ff#)	.
16f#JJ	.	.
=64	=64	=64
16BBLL	8r	.
16d	.	.
16F#	(8ff#	.
16dJJ	.	.
16C#LL	4.cc#^<	.
16e	.	.
16F#	.	.
16eJJ	.	.
16DLL	.	.
16f#	.	.
16F#	8b)	.
16f#JJ	.	.
=65	=65	=65
16ELL	(4b/	.
16d	.	.
16B	.	.
16dJJ	.	.
16E#LL	4g	.
16d	.	.
16B	.	.
16dJJ	.	.
16F#LL	4f#)	.
16d	.	.
16B	.	.
16dJJ	.	.
=66	=66	=66
2F#	(8f#L	.
.	8d	.
.	8B	.
.	8G	.
4FFF# 4FF#	8F#	.
.	8A#J)	.
=67	=67	=67
!	!	!LO:DY:b=2:rj
8BBB' 8BB'L	4B	f
8CC#' 8C#'	.	.
8DD' 8D'	4r	.
8EE' 8E'J	.	.
!LO:DY:rj	!	!
[4FF#z [4F#z	4r	.
!!LO:LB:g=z
=68	=68	=68
!	!LO:DY:rj	!
2.FF#] 2.F#]	2.Gz (>2.Bz	.
=69	=69	=69
*	*^	*
2.EE 2.E	2cn	2.G	p
.	[4g	.	.
=70	=70	=70	=70
2.FF# 2.F#	2g]	2.A# 2.c# 2.e	.
.	4f#)	.	.
*	*v	*v	*
=71	=71	=71
!	!	!LO:DY:rj:b=2
8BBB' 8BB'L	4B 4d 4f#	f
8CC#' 8C#'	.	.
8DD' 8D'	4r	.
8EE' 8E'J	.	.
!LO:DY:rj	!	!
[4FF#z [4F#z	4r	.
=72	=72	=72
!	!LO:DY:rj	!
2.FF#] 2.F#]	(>2.Gz 2.Bz	.
=73	=73	=73
*	*^	*
!	!	!	!LO:DY:rj
2.EE 2.E	2cn	2.G	p
.	[4g	.	.
=74	=74	=74	=74
2.FF# 2.F#	2g]	2.A# 2.c# 2.e	.
.	4f#)	.	.
*	*v	*v	*
=75	=75	=75
2.r	4r	.
.	4r	.
.	(>[4g	.
=76	=76	=76
*	*^	*
2.BBB 2.BB	2g]	2.B 2.d	>
.	4f#)	.	.
*	*v	*v	*
!!LO:LB:g=z
=77	=77	=77
2.r	4r	.
.	4r	.
.	(>[4g	.
=78	=78	=78
*	*^	*
2.FFF# 2.FF#	2g]	2.c# 2.e	.
.	4a#)	.	.
*	*v	*v	*
=79	=79	=79
4BBB 4BB	4B 4d 4b	pp
4r	4r	.
4r	4r	.
=80	=80	=80
4BBB 4BB	4B 4d 4b	.
4r	4r	.
4r	4r	.
=81	=81	=81
4BBB 4BB	4B 4d 4b	.
4r	4r	.
4r	4r	.
=82	=82	=82
2.r	2.b	pp
=83	=83	=83
2.r	2.b	.
=84	=84	=84
*	*^	*
4r	4raa	2b	.
4r	4raa	.	.
*clefG2	*	*	*
4f#' 4a'	4aa	8bL	.
.	.	8bJ	.
=85	=85	=85	=85
4f# 4a	(4.aa	8bL	.
.	.	8b	.
4r	.	8b	.
.	8gg)	8b	.
8f# 8a	8ff#	8b	.
8r	8r	8bJ	.
!!LO:LB:g=z
=86	=86	=86	=86
4e 4g	4gg 4bb	8bL	.
.	.	8b	.
4r	4raa	8b	.
.	.	8b	.
4e 4g	4gg 4bb	8b	.
.	.	8bJ	.
=87	=87	=87	=87
4d 4fn	4.gg# (4.bb	8bL	.
.	.	8b	.
4r	.	8b	.
.	8aa)	8b	.
8d 8f	8gg# 8bb	8b	.
8r	8raa	8bJ	.
=88	=88	=88	=88
8c 8e	4aa 4ccc	4cc	.
8eL	.	.	.
8e	4r	4r	.
8e	.	.	.
8e	4ryy	4cc 4ccc	<
8eJ	.	.	.
*	*v	*v	*
=89	=89	=89
*^	*	*
8eL	4A 4c	4.cc (4.ccc	.
8e	.	.	.
8e	4rA	.	.
8e	.	8b 8bb)	.
8e	8A 8c	8a 8aa	.
8eJ	8r	8r	.
=90	=90	=90	=90
8fnL	4A- 4B	4dd 4ddd	.
8f	.	.	.
8f	4rA	4r	.
8f	.	.	.
8f	4A- 4B	4dd 4ddd	.
8fJ	.	.	.
=91	=91	=91	=91
8fnL	4A- 4B-	4.dd (4.ddd	.
8f	.	.	.
8f	4rA	.	.
8f	.	8cc 8ccc)	.
8f	4A- 4B-	8dd 8ddd	.
8fJ	.	8r	.
*v	*v	*	*
!!LO:LB:g=z
=92	=92	=92
8G 8B- 8e-L	4.ee- (4.eee-	f
8G 8B- 8e-	.	.
8G 8B- 8e-	.	.
8G 8B- 8e-	8dd 8ddd)	.
8G 8B- 8e-	8ee- 8eee-	.
8G 8B- 8e-J	8r	.
=93	=93	=93
8G- 8B-L	(4.e-	sf
8G- 8B-	.	.
8G- 8B-	.	.
8G- 8B-	8d)	.
8G- 8B-	8e-	.
8G- 8B-J	8r	.
*clefF4	*	*
=94	=94	=94
8E- 8G-L	(4.e- 4.g-	sf
8E- 8G-	.	.
8E- 8G-	.	.
8E- 8G-	8d) 8fn	.
8E- 8G-	8e- 8g-	.
8E- 8G-J	8r	.
=95	=95	=95
8C 8E-L	4.ee- (4.gg-	sf
8C 8E-	.	.
8C 8E-	.	.
8C 8E-	8dd 8ffn)	.
8C 8E-	8ee- 8gg-	.
8C 8E-J	8r	.
=96	=96	=96
8AA 8CL	4.cc (4.ccc	sf
8AA 8C	.	.
8AA 8C	.	.
8AA 8C	8b 8bb)	.
8AA 8C	8cc 8ccc	.
8AA 8CJ	8r	.
=97	=97	=97
8FF#X 8AA 8CL	(4.A	sf
8FF# 8AA 8C	.	.
8FF# 8AA 8C	.	.
8FF# 8AA 8C	8G#)	.
8FF# 8AA 8C	8A	.
8FF# 8AA 8CJ	8r	.
!!LO:LB:g=z
=98	=98	=98
*	*8va	*
8EE- 8FF#X 8AA 8CL	4.ff#X (4.fff#X	.
8EE- 8FF# 8AA 8C	.	.
8EE- 8FF# 8AA 8C	.	.
8EE- 8FF# 8AA 8C	8ee#\ 8eee#\)	.
8EE- 8FF# 8AA 8C	8ff# 8fff#	.
*	*X8va	*
8EE- 8FF# 8AA 8CJ	8r	.
=99	=99	=99
8DDn 8FF#X 8AA 8CL	[4.f# [4.a 4.cc	.
8DD 8FF# 8AA 8C	.	.
8DD 8FF# 8AA 8C	.	.
8DD 8FF# 8AA 8C	8f#] 8a] 8b	.
8DD 8FF# 8AA 8C	8f# 8a 8cc	.
8DD 8FF# 8AA 8CJ	8r	.
=100	=100	=100
8GGG 8GGL	4fn 4a- 4b	.
8GGG 8GG	.	.
8GGG 8GGJ	8r	.
8r	8a' 8b' 8ffn'	p
4r	4g' 4cc' 4een'	.
=101	=101	=101
8r	4f#X' 4an' 4ee-'	.
8GGG 8GGL	.	.
8GGG 8GGJ	8r	.
8r	8f#' 8a' 8ee-'	.
4r	4fn'\ 4b'\ 4dd'\	.
=102	=102	=102
8r	4e' 4g' 4cc#'	.
8GGG 8GGL	.	.
8GGG 8GGJ	8r	.
8r	8e-' 8g' 8ccn'	.
4r	4d' 4g' 4b'	.
=103	=103	=103
8r	8c# 8e 8b-	.
8GGG 8GG	8r	.
8r	8cn 8e- 8a	.
8GGG 8GG	8r	.
8r	8c 8e- 8a-	.
8GGG 8GG	8r	.
!!LO:LB:g=z
=104	=104	=104
8r	8g	<
8GGG 8GG	8r	.
8r	8f#X	.
8AAA 8AA	8r	.
8r	8fn	.
8BBB 8BB	8r	.
=105	=105	=105
8r	8e	.
8CC 8C	8r	.
8r	8e-	.
8CC# 8C#	8r	.
8r	8d	.
8DD 8D	8r	.
=106	=106	=106
8r	8c#	.
8EE- 8E-	8r	.
8r	8cn	.
8EEn 8En	8r	.
8r	8B	.
8FFn 8Fn	8r	.
=107	=107	=107
8r	8B-	>
8FF#X 8F#X	8r	.
8r	8A	.
8GG 8G	8r	.
8r	8A-	.
8GG 8G	8r	.
=108	=108	=108
2.r	(8A-L	pp
.	8GJ	.
.	[2g)	.
=109	=109	=109
(2fn	2g]	.
4B 4f	[4g	.
!!LO:LB:g=z
=110	=110	=110
4c 4e	4g]	.
4c	(4cc/	.
4c#	4a	.
=111	=111	=111
4d	4g	.
4A	4fn)	.
4B-	[4f	.
=112	=112	=112
4Bn	4f]	.
4G	(4dd	.
4d	[4fn	.
=113	=113	=113
4d-	4f]	.
4c)	4e)	.
4B- ([4c	16eLL<	.
.	16g	.
.	16cc	.
.	16eeJJ	.
=114	=114	=114
4A 4c]	16ffnLL	.
.	16cc	.
.	16a	.
.	16fnJJ	.
4Fn 4fn	16aLL	.
.	16cc	.
.	16ff	.
.	16aaJJ	.
4F# 4d	16aaLL	.
.	16dd	.
.	16aa	.
.	16dddJJ	.
=115	=115	=115
4G 4c	16aaLL	.
.	16dd	.
.	16aa	.
.	16bb-JJ	.
4D 4B-)	16ggLL	.
.	16dd	.
.	16gg	.
.	16bb-JJ	.
4Fn ([4B-	16ggLL	.
.	16dd-	.
.	16gg	.
.	16bb-JJ	.
!!LO:LB:g=z
=116	=116	=116
4E 4B-]	16ggLL	.
.	16cc	.
.	16gg	.
.	16bb-JJ	.
4g	16eeLL	.
.	16cc	.
.	16ee	.
.	16ggJJ	.
4C [4B-	16ggLL	.
.	16ee	.
.	16gg	.
.	16cccJJ	.
=117	=117	=117
4Fn 4B-]	16ggLL	.
.	16ee	.
.	16gg	.
.	16cccJJ	.
4F 4A)	16aaLL	.
.	16ffn	.
.	16aa	.
.	16cccJJ	.
[4AA	16aaLL	<
.	16ff	.
.	16aa	.
.	16cccJJ	.
=118||	=118||	=118||
*k[]	*k[]	*k[]
4AA]	16aaLL	.
.	16ff	.
.	16aa	.
.	16dddJJ	.
(4D/	16aaLL	.
.	16ff	.
.	16aa	.
.	16dddJJ	.
4BB-	16bb-LL	.
.	16ff	.
.	16bb-	.
.	16dddJJ	.
=119	=119	=119
4AA	16bbnLL	.
.	16ff	.
.	16bb	.
.	16dddJJ	.
4GG#)	16bbLL	.
.	16ee	.
.	16bbJK	.
.	16dddJ	.
4GG#	16bbLL	.
.	16ee	.
.	16bb	.
.	16dddJJ	.
!!LO:LB:g=z
=120	=120	=120
*^	*	*
4ryy	4GG#	16bbLL	.
.	.	16ee	.
.	.	16bb	.
.	.	16dddJJ	.
2E	4Ez	16bbLL	.
.	.	16ee	.
.	.	16bb	.
.	.	16dddJJ	.
.	4GG#	16bbLL	.
.	.	16ee	.
.	.	16bb	.
.	.	16dddJJ	.
=121	=121	=121	=121
4ryy	4AA	16bbLL	.
.	.	16ee	.
.	.	16bb	.
.	.	16cccJJ	.
2E	4Ez	16aaLL	.
.	.	16ee	.
.	.	16aa	.
.	.	16cccJJ	.
.	4AA	16aaLL	.
.	.	16ee	.
.	.	16aa	.
.	.	16cccJJ	.
=122	=122	=122	=122
4ryy	4BB	16aaLL	.
.	.	16dd	.
.	.	16aa	.
.	.	16bbJJ	.
2E	4Ez	16gg#LL	.
.	.	16dd	.
.	.	16gg#	.
.	.	16bbJJ	.
.	4BB	16gg#LL	.
.	.	16dd	.
.	.	16gg#	.
.	.	16bbJJ	.
=123	=123	=123	=123
4ryy	4C	16gg#LL	.
.	.	16cc	.
.	.	16gg#	.
.	.	16bbJJ	.
2E	4Ez	16gg#LL	.
.	.	16aa	.
.	.	16cc	.
.	.	16aaJJ	.
.	4C	16gg#LL	.
.	.	16aa	.
.	.	16cc	.
.	.	16aaJJ	.
!!LO:LB:g=z
=124	=124	=124	=124
4ryy	4D#	16aaLL	.
.	.	16b	.
.	.	16aa	.
.	.	16bbJJ	.
2B	4Bz	16aaLL	.
.	.	16b	.
.	.	16aa	.
.	.	16bbJJ	.
.	4D#	16aaLL	.
.	.	16b	.
.	.	16aa	.
.	.	16bbJJ	.
=125	=125	=125	=125
4ryy	4E	16aaLL	.
.	.	16b	.
.	.	16aa	.
.	.	16bbJJ	.
2c	4cz	16aaLL	.
.	.	16b	.
.	.	16aa	.
.	.	16bbJJ	.
.	4E	16aaLL	.
.	.	16b	.
.	.	16aa	.
.	.	16bbJJ	.
=126	=126	=126	=126
4ryy	4F#	16aaLL	.
.	.	16b	.
.	.	16aa	.
.	.	16bbJJ	.
2d#	4d#z	16aaLL	.
.	.	16b	.
.	.	16aa	.
.	.	16bbJJ	.
.	4F#	16aaLL	.
.	.	16b	.
.	.	16aa	.
.	.	16bbJJ	.
=127	=127	=127	=127
4ryy	4G	16ggLL	.
.	.	16b	.
.	.	16gg	.
.	.	16bbJJ	.
2e	4ez	16ggLL	.
.	.	16b	.
.	.	16gg	.
.	.	16bbJJ	.
.	4G	16bbLL	.
.	.	16ee	.
.	.	16bb	.
.	.	16eeeJJ	.
*clefG2	*	*	*
!!LO:LB:g=z
=128	=128	=128	=128
*	*	*8va	*
4ryy	4A	16cccLL	.
.	.	16ee	.
.	.	16ccc	.
.	.	16eeeJJ	.
2f#	4f#z	16cccLL	.
.	.	16ee	.
.	.	16ccc	.
.	.	16eeeJJ	.
.	4A	16cccLL	.
.	.	16ee	.
.	.	16ccc	.
.	.	16eeeJJ	.
=129	=129	=129	=129
4ryy	4A#	16ccc#LL	.
.	.	16gg	.
.	.	16ccc#	.
.	.	16eeeJJ	.
2g	4gz	16ccc#LL	.
.	.	16gg	.
.	.	16ccc#	.
.	.	16eeeJJ	.
.	4A#	16ccc#LL	.
.	.	16gg	.
.	.	16ccc#	.
.	.	16eeeJJ	.
=130	=130	=130	=130
*ped	*	*	*
!	!	!	!LO:DY:i:t=più %s
4B	2B	16bbLL	f
.	.	16gg	.
.	.	16bb	.
.	.	16eeeJJ	.
4e	.	16gggLL	.
.	.	16fff#	.
.	.	16eee	.
.	.	16ddd#JJ	.
4g	4ryy	16eeeLL	.
.	.	16ddd#	.
.	.	16eee	.
.	.	16fff#JJ	.
*v	*v	*	*
=131||	=131||	=131||
*k[f#]	*k[f#]	*
4b	16gggLL	.
.	16fff#	.
.	16eee	.
.	16ddd#JJ	.
4ee	16gggLL	.
.	16fff#	.
.	16eee	.
.	16ddd#JJ	.
4gg	16gggLL	.
.	16fff#	.
.	16eee	.
.	16ddd#JJ	.
!!LO:LB:g=z
=132	=132	=132
4r	16gggLL	ff
.	16fff#	.
.	16eee	.
.	16ddd#JJ	.
16ggLL	8eee	.
16ff#	.	.
16ee	8r	.
16dd#JJ	.	.
8ee	4r	.
*Xped	*	*
8r	.	.
=133	=133	=133
4r	(8gggL	p
.	8fff#	.
(8ggL	8eee	.
8ff#	8ddd#J	.
8ee	4eee)	.
8dd#J	.	.
=134	=134	=134
!	!	!LO:HP:i:t=sempre diminuendo
4ee)	(4ggg	>
4r	4fff#	.
(4gg	4eee	.
=135	=135	=135
4ff#	4ddd#	.
4ee	4eee)	.
4dd#	4r	.
=136	=136	=136
4ee)	(2ggg	.
4r	.	.
4r	[4fff#	.
=137	=137	=137
(2gg	4fff#]	.
.	4eee)	.
*	*X8va	*
[4ff#	4r	.
=138	=138	=138
4ff#]	(2g	<
4ee)	.	.
4r	8f#L	[ >
.	8eJ	]]
=139	=139	=139
(2g	4e)	.
.	4r	.
8f#L	4r	.
8eJ	.	.
!!LO:LB:g=z
=140	=140	=140
4e)	4r	.
4r	(4g	pp
(4g	8f#L	.
.	8eJ)	.
=141	=141	=141
8f#L	8e	<
8eJ	8r	.
8e)	8r	.
!!LO:TX:a:B:t=Poco rit.
8r	(8gL	.
8r	8f#	.
(8gg	8eJ)	.
=142	=142	=142
8ff#L	8r	.
*	*8va	*
8eeJ)	(8gggL	.
8r	8fff#	.
(8ggL	8eeeJ)	.
*	*X8va	*
8ff#	8r	.
8eeJ)	(8g	.
=143	=143	=143
8r	8f#L	.
*clefF4	*	*
(8GL	8eJ)	.
8F#	4r	.
8EJ)	.	.
8E	8g	f
8r	8r	.
=144	=144	=144
*	*^	*
!!LO:TX:a:B:t=a Tempo
2EE 2E	(4.g	2G 2B 2e	.
.	8f#	.	.
8EE 8E	8G 8e)	4ryy	.
8r	8r	.	.
*	*v	*v	*
=145	=145	=145
8DD 8D	8A 8f# 8a	.
8r	8r	.
4r	4r	.
4d	4f# 4a	p
=146	=146	=146
(<4.c 4.d	(4.f# 4.a	.
8B 8d)	8g)	.
(4A' 4c'	(4f#' 4a'	.
!!LO:LB:g=z
=147	=147	=147
4G' 4B')	4g') 4b'	.
4r	4r	.
8GG\ 8G\	8B 8d 8g 8b	f
8r	8r	.
=148	=148	=148
*	*^	*
2GG\ 2G\	(4.b	2B 2d 2g	.
.	8a	.	.
8GGG 8GG	8B 8g)	4ryy	.
8r	8r	.	.
*	*v	*v	*
=149	=149	=149
8FFF# 8FF#	8c# 8a# 8cc#	.
8r	8r	.
4r	4r	.
*clefG2	*	*
4f#	4a# 4cc#	p
=150	=150	=150
(4.e 4.f#	4.a# (4.cc#	.
8d 8f#)	8b)	.
(4c#' 4e'	4a#' (4cc#'	.
=151	=151	=151
4B' 4d')	4b' 4dd')	.
4r	4r	.
4r	[4dd	.
=152	=152	=152
*^	*	*
*	*^	*	*
[2.g	2d	2.B	4dd]	.
.	.	.	(4gg	.
.	[4e	.	4ee	.
*	*v	*v	*	*
=153	=153	=153	=153
2g]	2A 2e]	4dd	.
.	.	4ccn)	.
4f#	(4e-	[4cc	.
!!LO:LB:g=z
=154	=154	=154	=154
2f#	2d)	(4cc]	.
.	.	4aa)	.
(4f#	4ryy	[4cc	.
*v	*v	*	*
=155	=155	=155
2g	(4cc]	.
.	4b)	.
*clefF4	*	*
4G	[4b	.
=156	=156	=156
2E	(4b]	>
.	4g)	.
4e	[4g	.
=157	=157	=157
2c	(4g]	.
.	4e)	.
[4C)	[4e	.
=158	=158	=158
2.CC 2.C]	4e]	pp
*	*clefF4	*
!!LO:TX:a:B:t=Rit.
.	(4G	.
.	4E)	.
=159	=159	=159
2BBB; 2BB;	2D#; 2B;	.
*	*clefG2	*
4r	[4ee [4eee	.
=160	=160	=160
*^	*	*
*	*^	*	*
*ped	*	*	*	*
!!LO:TX:a:B:t=a Tempo
2.B	[>2.E	2.GG	4.ee] (4.eee]	<
.	.	.	8dd# 8ddd#	.
.	.	.	4ee 4eee)	.
*Xped	*	*	*	*
*v	*v	*v	*	*
=161	=161	=161
*^	*	*
2.E]	2AA	2c 2e 2f#	.
.	4AA#	4c# 4e 4f#	[[
*v	*v	*	*
!!LO:LB:g=z
=162	=162	=162
*	*^	*
2.BB	(4.f#	2.A 2.d#	>
.	8gL	.	.
.	8a	.	]
.	8gJ)	.	.
*	*v	*v	*
=163	=163	=163
2C (2G	4f#	>
.	4e	]
8BBL	[4ee [4eee	<
8AAJ)	.	.
=164	=164	=164
*^	*	*
2.B 2.E	2GG	4.ee] (4.eee]	.
.	.	8dd# 8ddd#	.
.	4GG#	4ee 4eee)	[
*v	*v	*	*
=165	=165	=165
2AA	2c 2e 2f#	fp
4AA#	4c# 4e 4f#	.
=166	=166	=166
*	*^	*
!!LO:TX:a:B:t=Rit.
2.BBB 2.BB	(4.f#	2.A 2.d#	.
.	8aL	.	.
.	8g	.	.
.	8f#J	.	.
*	*v	*v	*
=167	=167	=167
4EE 4E	4G 4e)	.
4r;	4r;	.
4GGG 4GG	4G 4g	pp
=168	=168	=168
!!LO:TX:a:B:t=a Tempo
2GGG 2GG	2G 2g	.
4CC 4C	4c 4cc	.
!!LO:LB:g=z
=169	=169	=169
2CC 2C	2c 2cc	.
4GG\ 4G\	4g 4gg	.
=170	=170	=170
2GG\ 2G\	2g 2gg	.
4C 4c	4cc 4ccc	.
=171	=171	=171
2C 2c	2cc 2ccc	.
*	*8va	*
!	!	!LO:DY:rj
8B 8d 8fn 8g	8ffn 8ddd 8fffn	f
8r	8r	.
=172	=172	=172
!	!	!LO:DY:rj
4.B 4.d 4.fn 4.g	4.ffn 4.ddd 4.fffn	sf
8r	16eeeLL	.
.	16dddJJ	.
4r	16cccLL<	.
.	16bb	.
.	16aa	.
.	16ggJJ	.
*	*X8va	*
=173	=173	=173
2.r	16ffnLL	.
.	16ee	.
.	16dd	.
.	16ccJJ	.
.	(24bLL	.
.	24a	.
.	24g	.
.	24fn	.
.	24e	.
.	24dJJ)	.
.	(>20c<LL	.
.	20B<	.
.	20A<	.
.	20G<	.
.	20F#<JJ)	.
=174	=174	=174
4r	8G	.
.	8r	.
4r	4r	.
8BBB 8BB	8G 8d 8fn	.
8r	8r	.
!!LO:LB:g=z
=175	=175	=175
8CC 8C	8G 8c 8e	.
8r	8r	.
4r	4r	.
8E 8G# 8B 8d	8dd 8gg# 8bb 8ddd	.
8r	8r	.
=176	=176	=176
4.E 4.G# 4.B 4.d	4.dd 4.gg# 4.bb 4.ddd	sf
8r	16cccLL	.
.	16bbJJ	.
4r	16aaLL	.
.	16gg#	.
.	16ff#X	.
.	16eeJJ	.
=177	=177	=177
2.r	16ddLL	.
.	16cc	.
.	16b	.
.	16aJJ	.
.	(24g#LL	.
.	24f#	.
.	24e	.
.	24d	.
.	24c	.
.	24BJJ)	.
*	*clefF4	*
.	(20ALL	.
.	20G#	.
.	20F#	.
.	20E	.
.	20D#JJ)	.
=178	=178	=178
4r	4E	.
4r	4r	.
8GGG# 8GG#	8E 8B 8d	.
8r	8r	.
=179	=179	=179
8AAA 8AA	8E 8A 8c	.
8r	8r	.
4r	4r	.
*	*clefG2	*
4FFn\ 4C\ 4A\	4ccc	p
!!LO:LB:g=z
=180	=180	=180
[2.FFn\ [2.C\ [2.A\	4.ccc	.
.	16bb-LL	.
.	16aaJJ	.
.	16ggLL	.
.	16ffn	.
.	16ee	.
.	16ddJJ	.
=181	=181	=181
2FFnX\] 2C\] 2A\]	16ccLL	.
.	16b-	.
.	16a	.
.	16gJJ	.
.	(20fnLL	.
.	20e	.
.	20d	.
.	20c	.
.	20B-JJ)	.
4FF 4C	4A	.
=182	=182	=182
2FFn 2C	2A	.
4FF 4C	4A 4d#	.
=183	=183	=183
2FFn 2C	2A 2d#	.
4FF#\ 4C\ 4A\	4d# 4a	.
=184	=184	=184
2FF#\ 2C\ 2A\	2d# 2a	.
4FF#\ 4C\ 4A\	4d# 4a 4dd#	.
=185	=185	=185
2FF#\ 2C\ 2A\	2d# 2a 2dd#	.
4FF#\ 4C\ 4A\	4cc 4dd# 4aa 4ccc	.
!!LO:LB:g=z
=186	=186	=186
[2.FF#\ [2.BB\ [2.A\	2cc 2dd# 2aa (2ccc	<
.	4b 4dd# 4aa 4bb	.
=187	=187	=187
2FF#\] 2BB\] 2A\]	2a# 2dd# 2aa#	.
4FF#\ 4BB\ 4A\	4b 4dd# 4aan 4bb)	.
=188	=188	=188
8GG 8BB 8GL	2.b 2.ee 2.bb	f
8G 8B	.	.
8G 8B	.	.
8G 8B	.	.
8G 8B	.	.
8G 8BJ	.	.
=189	=189	=189
8G# 8BL	2.ee 2.eee	sf
8G# 8B	.	.
8G# 8B	.	.
8G# 8B	.	.
8G# 8B	.	.
8G# 8BJ	.	.
=190	=190	=190
8G# 8B 8dL	8b 8dd 8ee	.
8G# 8B 8d	8r	.
8A 8c	8fn 8cc 8ffn	.
8A 8c	8r	.
8A 8c	4r	.
8A 8cJ	.	.
=191	=191	=191
8A 8c 8eL	8cc 8ee 8ffn	.
8A 8c 8e	8r	.
8B 8d	8g# 8dd 8gg#	.
8B 8d	8r	.
8B 8d	4r	.
8B 8dJ	.	.
!!LO:LB:g=z
=192	=192	=192
8B 8d 8eL	8g# 8dd 8ee 8gg#	.
8B 8d 8e	8r	.
8c 8e	8a 8ee 8aa	.
8c 8e	8r	.
8c 8e	4r	.
8c 8eJ	.	.
=193	=193	=193
8c 8eL	8ee 8aa	.
8c# 8e	8r	.
8c# 8e	8a# 8ee 8gg 8aa#	.
8c# 8e	8r	.
8c# 8e	4r	.
8c# 8eJ	.	.
*clefG2	*	*
=194	=194	=194
8f#L	8cc# 8ee (8aanL	pp
8f#	8cc# 8ee 8aa#)	.
8f#	8cc#' 8ee' 8aa#'	.
8f#	8cc#' 8ee' 8aa#'	.
8f#	8cc#' 8ee' 8aa#'	.
8f#J	8cc#' 8ee' 8aa#'J	.
=195	=195	=195
8f#L	8cc# 8ee 8aa#L	<
8f#	8cc# 8ee 8aa#	.
8f#	8cc# 8ee 8aa#	.
8f#	8cc# 8ee 8aa#	.
8f#	8cc# 8ee 8aa#	.
8f#J	8cc# 8ee 8aa#J	.
=196	=196	=196
*	*8va	*
8B 8d# 8f# 8aL	8bb (8bbbL	.
8B 8d# 8f# 8a	8ccc 8cccc)	.
8B 8d# 8f# 8a	8ccc' 8cccc'	.
8B 8d# 8f# 8a	8ccc' 8cccc'	.
8B 8d# 8f# 8a	8ccc' 8cccc'	.
8B 8d# 8f# 8aJ	8ccc' 8cccc'J	.
=197	=197	=197
8B 8d# 8f# 8aL	8ccc 8ccccL	>
8B 8d# 8f# 8a	8ccc 8cccc	.
8B 8d# 8f# 8a	8ccc 8cccc	.
8B 8d# 8f# 8a	8ccc 8cccc	.
8B 8d# 8f# 8a	8ccc 8cccc	.
8B 8d# 8f# 8aJ	8ccc 8ccccJ	.
*	*X8va	*
*clefF4	*	*
!!LO:LB:g=z
=198	=198	=198
16ELL	4ccc/ 4cccc/	p
16g>	.	.
16B	.	.
16g>JJ	.	.
16F#LL	[>2bb/ [2bbb/	.
16a>	.	.
16B	.	.
16a>JJ	.	.
16GLL	.	.
16b>	.	.
16B	.	.
16b>JJ	.	.
=199	=199	=199
16ELL	4bb/] 4bbb/]	.
16g>	.	.
16B	.	.
16g>JJ	.	.
16F#LL	[>2ee/ [2eee/	.
16a>	.	.
16B	.	.
16a>JJ	.	.
16GLL	.	.
16b>	.	.
16B	.	.
16b>JJ	.	.
=200	=200	=200
16ELL	4ee/] 4eee/]	.
16g>	.	.
16B	.	.
16g>JJ	.	.
16F#LL	[>/2b [2bb/	.
16a>	.	.
16B	.	.
16a>JJ	.	.
16GLL	.	.
16b>	.	.
16B	.	.
16b>JJ	.	.
=201	=201	=201
16ELL	4b/] 4bb/]	.
16g>	.	.
16B	.	.
16g>JJ	.	.
16F#LL	[>2ee/	.
16a>	.	.
16B	.	.
16a>JJ	.	.
16GLL	.	.
16b>	.	.
16B	.	.
16b>JJ	.	.
!!LO:LB:g=z
=202	=202	=202
*	*^	*
2.ryy	(4ee]	16A<LL<	.
.	.	16g	.
.	.	16e	.
.	.	16gJJ	.
.	4cc	16A#<LL<	.
.	.	16g	.
.	.	16e	.
.	.	16gJJ	.
.	4b)	16BLL	.
.	.	16g	.
.	.	16e	.
.	.	16gJJ	.
=203	=203	=203	=203
2.ryy	2b	16BLL	.
.	.	16g	.
.	.	16e	.
.	.	16gJJ	.
.	.	16BLL	.
.	.	16g	.
.	.	16e	.
.	.	16gJJ	.
.	4dd#	16BLL	.
.	.	16a	.
.	.	16f#	.
.	.	16aJJ	.
*	*v	*v	*
=204	=204	=204
16EELL<	8eeL	.
16G	.	.
16BB	(8ccJ	.
16GJJ	.	.
16FF#LL	4.ccc^<	.
16A	.	.
16BB	.	.
16AJJ	.	.
16GGLL	.	.
16B	.	.
16BB	8bb)	.
16BJJ	.	.
=205	=205	=205
16EELL<	8r	.
16G	.	.
16BB	(8bb	.
16GJJ	.	.
16FF#LL	4.ff#^<	.
16A	.	.
16BB	.	.
16AJJ	.	.
16GGLL	.	.
16B	.	.
16BB	8ee)	.
16BJJ	.	.
!!LO:LB:g=z
=206	=206	=206
16EELL<	8r	.
16G	.	.
16BB	(8ee	.
16GJJ	.	.
16FF#LL	4.cc^<	.
16A	.	.
16BB	.	.
16AJJ	.	.
16GGLL	.	.
16B	.	.
16BB	8b)	.
16BJJ	.	.
=207	=207	=207
16EELL<	8r	.
16G	.	.
16BB	(8b/	.
16GJJ	.	.
16FF#LL	4.f#^>	.
16A	.	.
16BB	.	.
16AJJ	.	.
16GGLL	.	.
16B	.	.
16E	8e)	.
16BJJ	.	.
=208	=208	=208
16AALL	(4e	.
16G	.	.
16E	.	.
16GJJ	.	.
16AA#LL	4c	.
16G	.	.
16E	.	.
16GJJ	.	.
16BBLL	4B)	.
16G	.	.
16E	.	.
16GJJ	.	.
*	*clefF4	*
=209	=209	=209
2BB	(8BL	>
.	8G	.
.	8E	.
.	8C	.
4BBB	8BB	.
.	8D#J)	]]
=210	=210	=210
!	!	!LO:DY:b=2:rj
8EE'L<	4E	f
8FF#' 8F#'	.	.
8GG' 8G'	4r	.
8AA' 8A'J	.	.
[4BBz [4Bz	4r	.
*	*clefG2	*
!!LO:LB:g=z
=211	=211	=211
!	!LO:DY:rj	!
2.BB] 2.B]	2.cz (>2.ez	.
=212	=212	=212
*	*^	*
!	!	!	!LO:DY:rj
2.AA 2.A	2fn	2.c	p
.	[4cc	.	.
=213	=213	=213	=213
2.BB 2.B	2cc]	2.d# 2.f#X 2.a	.
.	4b)	.	.
*	*v	*v	*
=214	=214	=214
8EEE' 8EE'L	4e 4g 4b	f
8FFF#' 8FF#'	.	.
8GGG' 8GG'	4r	.
8AAA' 8AA'J	.	.
[4BBB [4BB	4r	sf
*	*clefF4	*
=215	=215	=215
2.BBB] 2.BB]	2.C (2.E	sf
=216	=216	=216
*	*^	*
2.AAA 2.AA	2Fn	2.C	p
.	[4c	.	.
=217	=217	=217	=217
2.BBB 2.BB	2c]	2.D# 2.F#X 2.A	.
.	4B)	.	.
*	*v	*v	*
=218	=218	=218
2.r	4r	.
.	4r	.
.	([4c	>
=219	=219	=219
*	*^	*
2.EE 2.BB	2c]	2.E 2.G	.
.	4B)	.	.
*	*v	*v	*
!!LO:LB:g=z
=220	=220	=220
2.r	4r	.
.	4r	.
.	([4c	.
=221	=221	=221
*	*^	*
2.BBB 2.BB	2c]	2.F# 2.A	.
.	4d#	.	.
*	*v	*v	*
=222	=222	=222
4EE	4G 4e)	.
*	*clefG2	*
4r	4r	.
4r	([4cc	.
=223	=223	=223
*	*^	*
2.BB 2.B	2cc]	2.d# 2.f# 2.a	.
.	4b)	.	.
*	*v	*v	*
=224	=224	=224
2.r	4r	.
.	4r	.
.	([4cc	.
=225	=225	=225
*	*^	*
2.E 2.B	2cc]	2.e 2.g	.
.	4b)	.	.
*	*v	*v	*
=226	=226	=226
2.r	4r	.
.	4r	.
.	([4cc	.
=227	=227	=227
*	*^	*
2.BB 2.B	2cc]	2.f# 2.a	.
.	4dd#	.	.
=228	=228	=228	=228
4E	4ee)	4g	.
4r	4raa	4re	.
4r	([4ccc	4re	.
*clefG2	*	*	*
!!LO:LB:g=z
=229	=229	=229	=229
2.b	2ccc]	2.dd# 2.ff# 2.aa	.
.	4bb)	.	.
*	*v	*v	*
=230	=230	=230
4r	2.r	.
4r	.	.
!	!	!LO:HP:b=2
[4cc	.	<[
=231	=231	=231
!	!	!LO:HP:b=2
4cc]	4r	>
4b	4r	]
4f# 4a	4dd# 4ff#	pp
=232	=232	=232
(4.e 4.g	4.ee (4.gg	.
8f# 8a	8dd# 8ff#	.
4g)	4ee)	.
=233	=233	=233
4dn 4f# 4a	4ff# 4aa	.
4r	4r	.
!!LO:TX:a:B:t=Ritardando
4dd	4ff# 4aa	.
=234	=234	=234
4.cc (4.dd	4.ff# (4.aa	.
8b 8dd	8gg	.
4a 4cc)	4ff# 4aa)	.
=235	=235	=235
4g\ 4b\	4gg 4bb	.
4r	4r	.
4gg	4bb	.
=236	=236	=236
(4.gg	(4.bb	.
8ff#	8aa	.
4ee)	4gg 4bb)	.
=237	=237	=237
4dd#	4aa 4ccc	.
4r;	4r;	.
4r	[4ee [4eee	.
*clefF4	*	*
!!LO:LB:g=z
=238	=238	=238
!!LO:TX:a:B:t=a Tempo
2.GG 2.E 2.B	4.ee] (4.eee]	.
.	8dd# 8ddd#	.
.	4ee 4eee)	<
=239	=239	=239
2AA	2c 2e 2f#	.
4AA#	4c# 4e 4f#	[
=240	=240	=240
*	*^	*
2.BB	(4.f#	2.A 2.d#	.
.	8gL	.	>
.	8a	.	.
.	8gJ	.	.
*	*v	*v	*
=241	=241	=241
2C 2G	4f#	.
.	4e)	]
(8BBB 8BBL	[4ee [4eee	.
8AAA 8AAJ	.	.
=242	=242	=242
2GGG 2GG	(4.ee] 4.eee]	<
.	8dd# 8ddd#	.
4GGG# 4GG#	4ee 4eee)	[
=243	=243	=243
2AAA 2AA	2c 2e 2f#	>
4AAA# 4AA#	4c# 4e 4f#	.
=244	=244	=244
*	*^	*
2.BBB 2.BB	(4.f#	2.A 2.d#	pp
.	8aL	.	.
.	8g	.	.
.	8f#J	.	.
*	*v	*v	*
=245	=245	=245
4EE)	4G 4e)	.
4r;	4r;	.
==	==	==
*-	*-	*-
!!!RDF**kern: > = above
!!!RDF**kern: < = below
!!!RDF**dynam: > = dim.
!!!verovio: beamFrenchStyle 1
!!!LOR: Durand 1915, plates 9327/9328, Paul Dukas, ed.
!!!URL-vhv: https://verovio.humdrum.org/?file=beethoven/sonatas/sonata27-1.krn
!!!URL-pdf: https://github.com/craigsapp/beethoven-piano-sonatas/blob/master/reference-edition/sonata27-1.pdf
!!!ENC: Craig Stuart Sapp
!!!END: 2006/08/01
!!!EED: Craig Stuart Sapp
!!!EEV: 2020/08/23
